icons/square/48/steam_icon_105600.svg

<svg version="1.1" viewBox="0 0 48 48" xmlns="http://www.w3.org/2000/svg">
 <defs>
  <linearGradient id="bg" x1="50%" x2="50%" y1="1" y2="47" gradientUnits="userSpaceOnUse">
   <stop stop-color="#7a97ff" offset="0"/>
   <stop stop-color="#68f" offset="1"/>
  </linearGradient>
 </defs>
 <path d="m1 43v0.25c0 2.216 1.784 4 4 4h38c2.216 0 4-1.784 4-4v-0.25c0 2.216-1.784 4-4 4h-38c-2.216 0-4-1.784-4-4zm0 0.5v0.5c0 2.216 1.784 4 4 4h38c2.216 0 4-1.784 4-4v-0.5c0 2.216-1.784 4-4 4h-38c-2.216 0-4-1.784-4-4z" opacity=".02"/>
 <path d="m1 43.25v0.25c0 2.216 1.784 4 4 4h38c2.216 0 4-1.784 4-4v-0.25c0 2.216-1.784 4-4 4h-38c-2.216 0-4-1.784-4-4z" opacity=".05"/>
 <path d="m1 43v0.25c0 2.216 1.784 4 4 4h38c2.216 0 4-1.784 4-4v-0.25c0 2.216-1.784 4-4 4h-38c-2.216 0-4-1.784-4-4z" opacity=".1"/>
 <rect x="1" y="1" width="46" height="46" rx="4" fill="url(#bg)"/>
 <path d="m31 17a7 7 0 0 1-7 7 7 7 0 0 1-7-7 7 7 0 0 1 7-7 7 7 0 0 1 7 7zm1 13a2 2 0 0 1-2 2 2 2 0 0 1-2-2 2 2 0 0 1 2-2 2 2 0 0 1 2 2zm-12-2a2 2 0 0 1-2 2 2 2 0 0 1-2-2 2 2 0 0 1 2-2 2 2 0 0 1 2 2zm0 10 2-1v-6l-5-3v-1l5 2v-8h4v10l5-2v1l-5 3v4l2 1z" opacity=".1"/>
 <g transform="translate(0-1)">
  <path d="m20 38 2-1v-6l-5-3v-1l5 2v-8h4v10l5-2v1l-5 3v4l2 1z" fill="#805030"/>
  <g fill="#172">
   <circle cx="18" cy="28" r="2"/>
   <circle cx="30" cy="30" r="2"/>
   <circle cx="24" cy="17" r="7"/>
  </g>
 </g>
 <path d="m1 38v5a4 4 0 0 0 4 4h38a4 4 0 0 0 4-4v-5z" fill="#994911"/>
 <path d="m1 37v2h46v-2z" fill="#7a9722"/>
 <path d="m1 39v4c0 2.216 1.784 4 4 4h38c2.216 0 4-1.784 4-4v-4c0 2.216-1.784 4-4 4h-38c-2.216 0-4-1.784-4-4z" opacity=".1"/>
</svg>

<?xml version="1.0" encoding="UTF-8" standalone="no"?>
<svg xmlns="http://www.w3.org/2000/svg" version="1.1" viewBox="0 0 48 48">
  <defs>
    <linearGradient id="bg" gradientUnits="userSpaceOnUse"
                    x1="50%" y1="1"
                    x2="50%" y2="47">
      <stop offset="0" stop-opacity="1" stop-color="#7a97ff"/>
      <stop offset="1" stop-opacity="1" stop-color="#6688FF"/>
    </linearGradient>
  </defs>
  <path opacity=".02" d="m1 43v0.25c0 2.216 1.784 4 4 4h38c2.216 0 4-1.784 4-4v-0.25c0 2.216-1.784 4-4 4h-38c-2.216 0-4-1.784-4-4zm0 0.5v0.5c0 2.216 1.784 4 4 4h38c2.216 0 4-1.784 4-4v-0.5c0 2.216-1.784 4-4 4h-38c-2.216 0-4-1.784-4-4z"/>
  <path opacity=".05" d="m1 43.25v0.25c0 2.216 1.784 4 4 4h38c2.216 0 4-1.784 4-4v-0.25c0 2.216-1.784 4-4 4h-38c-2.216 0-4-1.784-4-4z"/>
  <path opacity=".1" d="m1 43v0.25c0 2.216 1.784 4 4 4h38c2.216 0 4-1.784 4-4v-0.25c0 2.216-1.784 4-4 4h-38c-2.216 0-4-1.784-4-4z"/>
  <rect fill="url(#bg)" rx="4" height="46" width="46" y="1" x="1"/>
  <path opacity=".1" d="m 31,17 a 7,7 0 0 1 -7,7 7,7 0 0 1 -7,-7 7,7 0 0 1 7,-7 7,7 0 0 1 7,7 z m 1,13 a 2,2 0 0 1 -2,2 2,2 0 0 1 -2,-2 2,2 0 0 1 2,-2 2,2 0 0 1 2,2 z M 20,28 a 2,2 0 0 1 -2,2 2,2 0 0 1 -2,-2 2,2 0 0 1 2,-2 2,2 0 0 1 2,2 z m 0,10 2,-1 0,-6 -5,-3 0,-1 5,2 0,-8 4,0 0,10 5,-2 0,1 -5,3 0,4 2,1 z"/>
  <g transform="translate(0-1)">
    <path d="M20,38 22,37 V31 l-5,-3 v-1 l5,2 V21 H26 V31 l5,-2 v1 l-5,3L 26,37 28,38 Z" fill="#805030"/>
    <circle cx="18" cy="28" r="2" fill="#172"/>
    <circle cx="30" cy="30" r="2" fill="#172"/>
    <circle cx="24" cy="17" r="7" fill="#172"/>
  </g>
  <path fill="#994911" d="M 1 38 V 43 A 4 4 0 0 0 5 47 H 43 A 4 4 0 0 0 47 43 V 38 Z"/>
  <path fill="#7a9722" d="M 1 37 V 39 H 47 V 37 Z"/>
  <path opacity=".1" d="m1 39v4c0 2.216 1.784 4 4 4h38c2.216 0 4-1.784 4-4v-4c0 2.216-1.784 4-4 4h-38c-2.216 0-4-1.784-4-4z"/>
</svg>
